map_marker_monochrome/openmoji_openfoodfact.svg

<svg xmlns="http://www.w3.org/2000/svg" width="24" height="24" viewBox="0 0 24 24"> <g transform="translate(0.0 0.063424079999999) scale(0.48)">
  
  <g
     id="line"
     transform="translate(-11,-9.3723798)">
    <path
       fill="none"
       stroke="#000"
       stroke-linecap="round"
       stroke-linejoin="round"
       stroke-width="2"
       d="M 34,44.5 V 58 H 25.0952 M 23,27 H 12 v 31 h 3.1429"
       id="path2" />
    <path
       fill="none"
       stroke="#000"
       stroke-linecap="round"
       stroke-linejoin="round"
       stroke-width="2"
       d="m 36,32 v -9 h 8 v 9"
       id="path4" />
    <path
       fill="none"
       stroke="#000"
       stroke-linecap="round"
       stroke-width="2"
       d="M 47,19.5 V 30"
       id="path6" />
    <path
       fill="none"
       stroke="#000"
       stroke-linecap="round"
       stroke-linejoin="round"
       stroke-width="2"
       d="m 37,41 v 17 h 5 V 41"
       id="path8" />
    <path
       fill="none"
       stroke="#000"
       stroke-linecap="round"
       stroke-linejoin="round"
       stroke-width="2"
       d="M 45,40.6531 V 58 h 8 V 36"
       id="path10" />
    <path
       fill="none"
       stroke="#000"
       stroke-linecap="round"
       stroke-linejoin="round"
       stroke-width="2"
       d="m 57,30 h 3 V 58 H 56 V 44 33"
       id="path12" />
    <path
       fill="none"
       stroke="#000"
       stroke-linecap="round"
       stroke-linejoin="round"
       stroke-miterlimit="10"
       stroke-width="2"
       d="m 52.5371,32.0666 c 4.3067,-6.5674 2.3264,-15.2885 -4.4231,-19.479 -6.7495,-4.19051 -15.7124,-2.2637 -20.0191,4.3038 -4.3067,6.5674 -2.3264,15.2884 4.4231,19.4789 6.7495,4.1905 15.7124,2.2637 20.0191,-4.3037 z"
       id="path14" />
    <path
       fill="none"
       stroke="#000"
       stroke-linecap="round"
       stroke-linejoin="round"
       stroke-miterlimit="10"
       stroke-width="2"
       d="m 49.6385,30.2669 c 3.2853,-5.0098 1.7748,-11.6625 -3.3739,-14.8591 -5.1487,-3.1966 -11.9858,-1.7267 -15.2711,3.2831 -3.2853,5.0098 -1.7747,11.6624 3.374,14.8591 5.1487,3.1966 11.9858,1.7267 15.271,-3.2831 z"
       id="path16" />
    <path
       fill="none"
       stroke="#000"
       stroke-linecap="round"
       stroke-linejoin="round"
       stroke-miterlimit="10"
       stroke-width="2"
       d="m 27.777,38.444 4.3636,2.709 -10.3955,15.853 c -0.7427,1.1326 -2.3216,1.4442 -3.5265,0.6962 -1.205,-0.7481 -1.5798,-2.2726 -0.8371,-3.4053 z"
       id="path18" />
    <path
       fill="none"
       stroke="#000"
       stroke-linecap="round"
       stroke-width="2"
       d="m 33,21 v 8"
       id="path20" />
  </g>
</g></svg>

<svg xmlns="http://www.w3.org/2000/svg" width="24" height="24" viewBox="0 0 24 24"> <g transform="scale(0.333333333)">  <g id="line">
    <path fill="none" stroke="#000" stroke-linecap="round" stroke-linejoin="round" stroke-width="2" d="M34 44.5V58H25.0952M23 27H12V58H15.1429"/>
    <path fill="none" stroke="#000" stroke-linecap="round" stroke-linejoin="round" stroke-width="2" d="M36 32V23H44V32"/>
    <path fill="none" stroke="#000" stroke-linecap="round" stroke-width="2" d="M47 19.5V30"/>
    <path fill="none" stroke="#000" stroke-linecap="round" stroke-linejoin="round" stroke-width="2" d="M37 41V58H42V41"/>
    <path fill="none" stroke="#000" stroke-linecap="round" stroke-linejoin="round" stroke-width="2" d="M45 40.6531V58H53V36"/>
    <path fill="none" stroke="#000" stroke-linecap="round" stroke-linejoin="round" stroke-width="2" d="M57 30H60V58H56V44V33"/>
    <path fill="none" stroke="#000" stroke-linecap="round" stroke-linejoin="round" stroke-miterlimit="10" stroke-width="2" d="M52.5371 32.0666C56.8438 25.4992 54.8635 16.7781 48.114 12.5876C41.3645 8.39709 32.4016 10.3239 28.0949 16.8914C23.7882 23.4588 25.7685 32.1798 32.518 36.3703C39.2675 40.5608 48.2304 38.634 52.5371 32.0666Z"/>
    <path fill="none" stroke="#000" stroke-linecap="round" stroke-linejoin="round" stroke-miterlimit="10" stroke-width="2" d="M49.6385 30.2669C52.9238 25.2571 51.4133 18.6044 46.2646 15.4078C41.1159 12.2112 34.2788 13.6811 30.9935 18.6909C27.7082 23.7007 29.2188 30.3533 34.3675 33.55C39.5162 36.7466 46.3533 35.2767 49.6385 30.2669Z"/>
    <path fill="none" stroke="#000" stroke-linecap="round" stroke-linejoin="round" stroke-miterlimit="10" stroke-width="2" d="M27.777 38.444L32.1406 41.153L21.7451 57.006C21.0024 58.1386 19.4235 58.4502 18.2186 57.7022C17.0136 56.9541 16.6388 55.4296 17.3815 54.2969L27.777 38.444Z"/>
    <path fill="none" stroke="#000" stroke-linecap="round" stroke-width="2" d="M33 21V29"/>
  </g></g></svg>
